X:1
T:F Major Stephen Jenks, 1803
T:Isaac Watts, 1719 (Psalm 84)     66. 66. 44. 44.
T:Armenia
T:Transcribed from Jenks and Griswold, The American Compiler, 1803.
%%score [ 1 2 3 4 ]
L:1/8
Q:1/4=120
M:2/4
K:F
V:1 treble nm="Treble" snm="Tr."
V:2 treble nm="Counter" snm="C."
V:3 treble-8 nm="Tenor" snm="T."
V:4 bass nm="Bass" snm="B."
V:1
 A4 | Ac cB | AF G2 | c4 | z2 c2 | f2 ef | gf ed | c4 | z2 c2 | A2 A2 | BG Ad | c4 | z2 c2 | %13
w: 1.~Lord|of * the *|worlds * a-|bove,|How|plea- sant *|and * how *|fair|The|dwel- lings|of * thy *|love,|Thy|
w: 2.~The|spar- * row *|for * her|young|With|plea- sure *|seeks * a *|nest,|And|wan- dering|swal- * lows *|long|To|
 cA df | F2 G2 | A2 z c |: f2 f2 | f2 z A | =B2 B2 | G2 z A | c2 B2 | Ac fd | c2 c2 |1 c3 c :|2 %24
w: earth- * ly *|tem- ples|are! To|thine a-|bode My|heart- *|spire With|warm de-|sires * To *|see my|God. To|
w: find * their *|won- ted|rest; My|spi- rit|faints With|e- qual|zeal To|rise and|dwell * A- *|mong thy|saints. My|
 c4- || c4 |] %26
w: ||
w: ||
V:2
 C4 | F2 F2 | F2 E2 | F4 | z2 F2 | F2 EF | G2 G2 | G4 | z2 E2 | F2 F2 | D2 CF | E4 | z2 C2 | %13
w: 3.~O|hap- py|souls that|pray|Where|God ap- *|points to|hear!|O|hap- py|men that *|pay|Their|
w: 4.~They|go from|strength to|strength,|Through|this dark *|vale of|tears,|Till|each ar-|rives at *|length,|Till|
 F2 F2 | F2 E2 | F2 z F |: A2 A2 | A2 z F | G2 G2 | G2 z F | F2 G2 | A2 cB | AF GE |1 F3 F :|2 %24
w: con- stant|ser- vice|there! They|praise thee|still, And|hap- py|they That|love the|way To *|Zi- * on's *|hill. They|
w: each in|heav'n ap-|pears: O|glo- rious|seat, When|God our|King Shall|thi- ther|bring Our *|wil- * ling *|feet! O|
 F4- || F4 |] %26
w: ||
w: ||
V:3
 F4 | c2 Ac | df eg | f4 | z2 f2 | c2 Ac | dc BA | G4 | z2 C2 | FA cA | dB AF | G4 | z2 c2 | %13
w: 5.~To|spend one *|sa- * cred *|day|Where|God and *|saints * a- *|bide,|Af-|fords * di- *|vi- * ner *|joy|Than|
w: 6.~God|is our *|sun * and *|shield,|Our|light and *|our * de- *|fense;|With|gifts * his *|hands * are *|filled,|We|
 cf FB | A2 G2 | F2 z F |: c2 c2 | c2 z A | d2 d2 | c2 z c | cA dB | cf FB | A2 G2 |1 F3 F :|2 %24
w: thou- * sand *|days be-|side; Where|God re-|sorts, I|love it|more To|keep * the *|door, * Than *|shine in|courts. Where|
w: draw * our *|bles- sings|thence: He|shall be-|stow On|Ja- cob's|race Pe-|cu- * liar *|grace, * And *|glo- ry|too. He|
 F4- || F4 |] %26
w: ||
w: ||
V:4
 F,4 | F,2 F,2 | F,2 C,2 | F,4 | z2 F,2 | F,2 A,2 | B,A, G,F, | C,4 | z2 C,2 | F,2 F,2 | %10
w: 7.~The|Lord his|peo- ple|loves;|His|hand no|good * with- *|holds|From|those his|
 B,,2 F,,2 | C,4 | z2 F,2 | F,2 A,B, | C2 C,2 | F,2 z F, |: F,2 F,2 | F,2 z A, | G,2 G,2 | %19
w: heart ap-|proves,|From|pure and *|pi- ous|souls: Thrice|hap- py|he, O|God of|
 C,2 z F, | A,2 G,2 | F,2 A,B, | C2 C,2 |1 F,3 F, :|2 F,4- || F,4 |] %26
w: hosts, whose|spi- rit|trusts A- *|lone in|thee. Thrice|||

